X:166
T:Well may I behold my faithful brown hair'd Maid
T:Gu mo slan a chi mi chailin dileas donn
R:Slow Air
S:Simon Fraser Collection
N:No.78
O:Scottish
M:C
L:1/8
Q:1/4=120
K:D Minor
D|F<F G>A d2 cB|A<F D>E F2 zD|F<F G>A f2 ec|d>cAc d2 zD|
F<F G>A f2 ec|d>cAc d2 zA|c>dcA d2 cB|A<F D>E F2 z||A|
c>dcA d2 cB|A<F D>E F2 z A/>G/|FFGA f2 ec|d>cAc d2 zA/>G/|
FF GA f2 ec|d>cAc d2 zA|c>dcA d2 cB|A<F D>E F2 z||

